X:80
T: Mis Bueoeli
N: D0089A
O: Europa, Mitteleuropa,Schweiz, Kt. Graubuenden, Chur
N: Inzipit = Variante zum Lied
R: Liebes - Lied
M: 6/8
L: 1/16
K: Eb
B2 | G2A2B2c2e2c2 | B4A2F4
B2 | G2A2B2c2e2c2 | B6z4
G2 | F2G2F2E2F2G2 | F3GF2E4
G2 | B2c2B2F2G2F2 | E6z4

